/* XPM */
static char *_236b4c176624034ac850bb76d1b4fbbhNB04kSNbquJ1QhO[] = {
/* columns rows colors chars-per-pixel */
"32 32 29 1 ",
"  c #000101",
". c #AC3635",
"X c #AD3A37",
"o c #AE373B",
"O c #A33D3D",
"+ c #AB383A",
"@ c #A83B3A",
"# c #A93B3A",
"$ c #AC3838",
"% c #AE3B3B",
"& c #AC393D",
"* c #AE3B3C",
"= c #B1393B",
"- c #97403F",
"; c #A24037",
": c #C9BEB2",
"> c #CBC7B5",
", c #CFC6B7",
"< c #CCC8B5",
"1 c #CDC8B5",
"2 c #CAC7B8",
"3 c #CEC5B8",
"4 c #CAC8B9",
"5 c #CFC8B9",
"6 c #D6C2B5",
"7 c #D1C5B7",
"8 c #D4C2B9",
"9 c #D0C5B8",
"0 c #D2C9BA",
/* pixels */
"=$$$$3$$$$$$3$$$$$$3$$$$$$3X+$+X",
"+++++,++++++1++++++1++++++,+++++",
"+++++,++++++,+++@++,++++++1+++++",
",,777777,777,77,777,77,777777,77",
".,$$$$$$,$$$$$$,$+$$$$,$$$$$$,$$",
"+1++++++,++++++,++++++,++++++1++",
"+,++++++,++++++,++++++,++++++,++",
"5,>>>11>,1>>11>,1>>>>>,>>>1>>,>>",
"o++;1++++               +>++++++",
"+++;,+++   7+++++&7++++  >++++++",
"+++;,+++  &7+++++&,++++++,++++++",
":998,999 93,99999319999990999399",
",++++++, +++++2++++++4++++++1+++",
",++++++, +++++4++++++4++++++1+++",
",++++++> +++++4++++++4++++++1+++",
",,,,,,,, ,,11,,,,,,,,,,,,,,7,,11",
"+@+6++++  1++++++1++++++1&+++++1",
"+++6++++           +++++,$+++++1",
"+++6++++  1++++++1++++++,$+++++,",
",,,,,,1, ,,,,,,,,,,,,,,1,1,,,,,,",
"++++++>$ ++++,++++++7++++++,$+++",
"++++++,$ ++++,++++++7++++++,$+++",
"++++++,$ ++++7++++++7+++++@,=+++",
",,,,,,,, ,,,,,,,,,,,,,,,,,,,,,,,",
"++,+++++  ++++++,@+@+++,++++++,+",
"++,+++++   +++++,++++++  +++++,+",
"++,++++++               ++++++1+",
",,,,,,,,,,,,,,,,,,11,,,,,,1,,,,,",
"-OOOO,OOOOOO,OOOOOO,OOOOOO,OOOO-",
"+++++,++++++,++++++,++++++,+++++",
"+++++,++++++,++++++,++++++,+++++",
",,,,,1,,,,,,,,,,,,,,,,,,,,,,,,,,"
};
