/* XPM */
static char *_246b4415f1f4608c8b4addfe1dbac1eqdUndSdMnZyxqIAH[] = {
/* columns rows colors chars-per-pixel */
"32 32 29 1 ",
"  c #000100",
". c #AC3634",
"X c #AD3A37",
"o c #AD3B37",
"O c #AE373B",
"+ c #A23D3D",
"@ c #AB383A",
"# c #A83B3A",
"$ c #A93B3A",
"% c #AD3939",
"& c #AD3B3A",
"* c #AC393C",
"= c #B0393B",
"- c #96403F",
"; c #A24137",
": c #C8BEB2",
"> c #CAC7B5",
", c #CFC6B7",
"< c #CAC9B6",
"1 c #CDC8B5",
"2 c #CAC7B8",
"3 c #CEC4B8",
"4 c #CAC8B8",
"5 c #CEC8B9",
"6 c #D6C2B5",
"7 c #D1C5B6",
"8 c #D4C3B9",
"9 c #D0C4B8",
"0 c #D2C9BA",
/* pixels */
"=%%%%3%%%%%%3%%%%%%3%%%%%%3X@%%X",
"@@@@@,@@@@@@1@@@@@@,@@@@@@,@@@@@",
"@@@@@,@@@@@@,@@@$@@,@@@@@@,@@@@@",
",,77777,,777,77,777,,7,777,77,77",
".,%%%%%@,%%%%%%,%%%%%%,%%%@@@,%%",
"@,@@@@@@,@@@@@@,@@@@@@,@@@@@@1@@",
"@,@@@@@@,@@@@@@,@@@@@@,@@@@@@1@@",
"5,>>>><>  >>>>>,<><>>>, >>>>>,>>",
"O@@;,@@@   7@@@@@*7@@@@ @,@@@@@@",
"@@@;,@@@ @  @@@@@*7@@@@ @,@@@@@@",
"@@@;,@@@ @*  @@@@*7@@@@ @,$@@@@@",
":998,399 93, 99993,9993 90999399",
",@@@@@@, @@@  4@@@@@@2@ @@@@<@@@",
",@@@@@@, @@@@ 4@@@@@@4@ @@@@<@@@",
",@@@@@@> @@@@  @@@@@@4@ @@@@<@@@",
",,,,,1,, 1,,,,  ,,,,,,, ,,,7,,11",
"@@@6@@@@ @<@@@@ @1@@@@@ 1*@@@@@,",
"@@@6@@@@ @<@@@@  1@@@@@ 1%@@@@@,",
"@@@6@@@@ @1@@@@@  @@@@@ ,%@@@@@,",
",,,,,,,, ,,,,,,,,  ,,,, 1,,,,,,,",
"@@@@@@1% @@@@7@@@@  7@@ @@@,=@@@",
"@@@@@$,% @@@@,@@@@@  @@ @@@,=@@@",
"@@@@@@,% @@@@7@@@@@@ @@ @@@1%@@@",
",,,,,,,, ,,,,,1,,,,,  , ,,,11,,,",
"@@,@@@@@ ,@@@@@@,@@@@ @ @@@@@@,@",
"@@,@@@@@ ,@@@@@@,@@@@   @@@@@@,@",
"@@,@@@@@ ,@@@@@@,@@@@@  @@@@@@,@",
",,,,,,1,,,1,,,,,,,,,,,,,,,,,,,,,",
"-++++,++++++,++++++,++++++,++++-",
"@@@@@,@@@@@@,@@@@@@,@@@@@$,@@@@@",
"@@@@@,@@@@@@,@@@@@@,@@@@@@,@@@@@",
",,,,,1,,,,,,1,,,,,,,,,,,,,,,,,,,"
};
