/* XPM */
static char *_7ff5a76fe424962a18cff3cd8337008GM7elr792r0uS02r[] = {
/* columns rows colors chars-per-pixel */
"32 32 30 1 ",
"  c #000100",
". c #AC3635",
"X c #AD3B37",
"o c #AE373B",
"O c #A33D3D",
"+ c #AB383A",
"@ c #A83B3A",
"# c #A93B3A",
"$ c #AC3838",
"% c #AE3B3B",
"& c #AC393C",
"* c #AD393C",
"= c #AE3B3C",
"- c #B1393B",
"; c #97403F",
": c #A24037",
"> c #C8BEB2",
", c #CBC7B5",
"< c #CFC6B7",
"1 c #CCC8B4",
"2 c #CDC8B5",
"3 c #CAC7B8",
"4 c #CEC4B8",
"5 c #CAC8B9",
"6 c #CFC8B9",
"7 c #D6C3B5",
"8 c #D1C4B7",
"9 c #D4C2B8",
"0 c #D0C5B8",
"q c #D2C9BA",
/* pixels */
"-$$$$4$$$$$$4$$$$$$4$$$$$$4X+$+X",
"+++++<++++++<++++++2++++++<+++++",
"+++++<++++++<++++++<++++++2+++++",
"<<888888<888<88<888<88<888888<88",
".<$$$$$$<$$$$$$<$$$$$$<$$$$$+<$$",
"+2++++++<++++++<++++++2++++++2++",
"+<++++++<+++++     +++<++++++2++",
"6<,,2,2,<,,   2<2,   ,<2,22,,<,,",
"o++:2+++++* +++++*8++   +,++++++",
"+++:<+++++ 8+++++*<++++++<++++++",
"+++:<+++++ 8+++++*<++++++<++++++",
">009<04000 <440004<000000q400000",
"<++++++<++ +++5++++++3+@++++2+++",
"<++++++<++  ++5++++++5++++++2+++",
"<++++++<+++ ++5++++++5++++++2+++",
"<<<<<<<<<<<< <<<<<<22<<<<<<8<<<2",
"+++7++++++2++     ++++++2*+++++2",
"+++7++++++2++++++2  ++++<$+++++2",
"+++7++++++2++++++2+ ++++<$+++++<",
"<<<<<<2<<<<<<<<<<<<< <<<<<<<2<<<",
"++++++2$ ++++8++++++ ++++++<-+++",
"++++++<$ ++++8+++++ 8++++++<$+++",
"++++++<$ ++++8+++  +8++++++<$+++",
"<<<<<<<<< <<<<   <<<<<<<<<<2<2<<",
"++<++++++<    ++<++++++<++++++<+",
"++<++++++<++++++<++++++<++++++<+",
"++<++++++<@+++++<++++++<+++@++<+",
"<<<<<<2<<<<<<<<<<<<2<<<<<<2<<<<<",
";OOOO<OOOOOO<OOOOOO<OOOOOO<OOOO;",
"+++++<++++++<++++++<++++++2+++++",
"+++++<++++++<++++++<++++++<+++++",
"<<<<<<<<<<<<<<<<<<<<<<<<<<<<<<<<"
};
