/* XPM */
static char *_c76eb5a316849f8a110f262b7e434a6ahg4Zm8m3ZQtRiNa[] = {
/* columns rows colors chars-per-pixel */
"32 32 29 1 ",
"  c #000100",
". c #AC3635",
"X c #AD3A36",
"o c #AE373B",
"O c #A33D3D",
"+ c #AB383A",
"@ c #A83B3A",
"# c #A93B3A",
"$ c #A93B3B",
"% c #AC3838",
"& c #AC3B38",
"* c #AD393C",
"= c #AE3B3C",
"- c #B1393B",
"; c #97403F",
": c #A34137",
"> c #C9BEB2",
", c #CBC7B5",
"< c #CFC6B7",
"1 c #CCC8B4",
"2 c #CDC8B4",
"3 c #CEC4B8",
"4 c #CAC8B9",
"5 c #CEC8B9",
"6 c #D6C2B5",
"7 c #D1C4B7",
"8 c #D4C2B9",
"9 c #D0C5B8",
"0 c #D2C9BA",
/* pixels */
"-%%%%3%%%%%%3%%%%%%3%%%%%%3X+%%X",
"+++++<++++++<++++++2++++++<+++++",
"+++++<++++++<+++@++<++++++<+++++",
"<<777777<777<77<777<77<777777<77",
".<%%%%%%<%%%%%%<%+%%%%<%%%%%+<%%",
"+2++++++<++++++<++++++<++++++2++",
"+<++++++<++++++<++++++<++++++<++",
"5<,,,22,<,,,2222,,22,,<2,222,<,,",
"o++:2+ +++*7+++++*7++++++<++++++",
"+++:<++ ++*7++++ +7++++ +<++++++",
"+++:<++ ++*7++++ *7++++ +<++++++",
">998<999 93<9999 3<9999 90999999",
"<++++++< +++++4  ++++4 +++++2+++",
"<++++++<+ ++++4  ++++4 +++++2+++",
"<++++++,+ ++++4  ++++4 +++++2+++",
"<<<<<<<<< <<<<< < 2<< <<<<<7<<<2",
"+++6++++++ ++++ + +++ ++2*+++++2",
"+@+6++++++  +++ +2 + +++<%+++++2",
"+++6++++++2 ++ ++2 + +++<%+++++<",
"<<<<2<2<<2<< < <<<   <<2<<<<<<<<",
"++++++2%++++  +++++ 7++++++<%+@+",
"++++++<%+++++ ++++++7++++++<%+++",
"++++++<%+++++7++++++7++++++<%+++",
"<<<<<<<<<<<<<<2<<<<<<<<<<<<22<<<",
"++<++++++<++++++<++++++<++++++<+",
"++<++++++2++++++<++++++<+++@++<+",
"++<++++++2++++++<++++++<++++++2+",
"<<<<<<<<<<<<<<<<<<222<<<<<2<<<2<",
";OOOO<OOOOOO<OOOOOO<OOOOOO<OOOO;",
"+++++<++++++<++++++<++++++<+++++",
"+++++<++++++<++++++<++++++<+++++",
"<<<<<2<<<<<<<<<<<<<<<<<<<<<<<<<<"
};
